X: 062096
T: First Fleadh (The)
C: Joe Liddy
Z: BB
S: "The Leitrim Fiddler" (Dublin 1981)
N: Uses dotted rhythm
L: 1/8
M: 4/4
R: hornpipe
Q: 1/4 = 160
K: Edor
GA | BedB AdBA | GBAG FDB,D | E2 (3FED GABd | efed BAGA |
BedB AdBA | GBAG FDB,D | E2 GA BdBA | G2 E2 E2 :|
BA | G2 EF GABd | (3edB dB ABGA | Bdef gfed | B2 e2 e2 ef |
(3gab fg edBd | (3edB AB GEFD | EFGA BdBA | G2 E2 E2 BA |
G2 FG EFGA | B2 BA (3Bcd ef | gfed efga | B2 e2 e2 ef |
gfed BAGF | EFGA Bdfa | gede BdAB | G2 E2 E4 ||
